!!!COM: Music21
!!!OTL: Marchiña De Bagüin
!!!OMV: pezas_marchas_marchina-de-baguin_marchina-de-baguin.musicxml
**kern
*part1
*staff1
*I"Piano
*I'Pno
*clefG2
*k[]
*M4/4
*MM180
=1
!LO:TX:a:t=[quarter]=180
4e
4.a
8a
4b
=
4.cc
8cc
4b
[4a
=
8aL]
8aJ
4cc
4b
4e
=
4b
4.dd
8cc
4b
=
4.a
8g#X
[4a
8aL]
[8eJ
=
1e]
=
4e
4.a
8a
4b
!!linebreak:original
=
4.cc
8cc
4b
[4a
!!linebreak:original
=
8aL]
8aJ
4cc
2b
=
4.dd
8cc
4b
[4a
=
4.a]
4.dd
8ccL
[8ddJ
=
8dd]
2.ee
8r
=
4.dd
8dd
4ee
[4cc
=
4cc]
4cc
4.b
8cc
=
4b
2.a
=
4.dd
8dd
4ee
[4cc
!!linebreak:original
=
4cc]
4cc
4.b
8cc
!!linebreak:original
=
4b
2.a
=
4d
4e
4.g
8e
=
4.d
8e
2a
=
4d
4e
4.g
8e
=
4.d
8e
2a
=
4e
4.a
8a
4b
=
4.cc
8cc
4b
[4a
=
8aL]
8aJ
4cc
2b
!!pagebreak:original
=
4.dd
8cc
4b
[4a
=
4.a]
4.dd
8ccL
[8ddJ
=
8dd]
2.ee
8r
=
4.d
8d
4e
[4c
=
4c]
4c
4.B
8c
=
4B
2.A
=
4.d
8d
4e
[4c
!!linebreak:original
=
4c]
4c
4.B
8c
!!linebreak:original
=
4B
2.A
==
*-
!!!system-decoration: s1,s2
